;Generated with Cura_SteamEngine 15.01
; Default start code
G28 ; Home extruder
G1 Z15 F200
M107 ; Turn off fan
G90 ; Absolute positioning
M82 ; Extruder in absolute mode
M190 S80
G92 E0 ; Reset extruder position
; Wait for all used extruders to reach temperature
M109 S230
;Layer count: 150
;LAYER:0
M107
G0 F9000 X81.400 Y81.400 Z0.300
;TYPE:SKIRT
G1 F1800 X118.600 Y81.400 E1.85592
G1 X118.600 Y118.600 E3.71183
G1 X81.400 Y118.600 E5.56775
G1 X81.400 Y81.400 E7.42366
G0 F9000 X81.800 Y81.800
G1 F1800 X118.200 Y81.800 E9.23967
G1 X118.200 Y118.200 E11.05567
G1 X81.800 Y118.200 E12.87167
G1 X81.800 Y81.800 E14.68768
G1 F2400 E10.68768
G0 F9000 X85.600 Y85.600
;TYPE:WALL-INNER
G1 F2400 E14.68768
G1 F1800 X114.400 Y85.600 E16.12451
G1 X114.400 Y114.400 E17.56135
G1 X85.600 Y114.400 E18.99819
G1 X85.600 Y85.600 E20.43503
G0 F9000 X85.200 Y85.200
;TYPE:WALL-OUTER
G1 F1800 X114.800 Y85.200 E21.91178
G1 X114.800 Y114.800 E23.38853
G1 X85.200 Y114.800 E24.86528
G1 X85.200 Y85.200 E26.34203
G0 F9000 X85.739 Y86.022
;TYPE:SKIN
G1 F1800 X113.976 Y114.259 E28.33430
G0 F9000 X114.259 Y113.977
G1 F1800 X86.023 Y85.740 E30.32654
G0 F9000 X86.588 Y85.740
G1 F1800 X114.259 Y113.411 E32.27888
G0 F9000 X114.259 Y112.845
G1 F1800 X87.154 Y85.740 E34.19128
G0 F9000 X87.720 Y85.740
G1 F1800 X114.259 Y112.280 E36.06379
G0 F9000 X114.259 Y111.714
G1 F1800 X88.285 Y85.740 E37.89639
G0 F9000 X88.851 Y85.740
G1 F1800 X114.259 Y111.148 E39.68906
G0 F9000 X114.259 Y110.583
G1 F1800 X89.417 Y85.740 E41.44184
G0 F9000 X89.982 Y85.740
G1 F1800 X114.259 Y110.017 E43.15471
G0 F9000 X114.259 Y109.451
G1 F1800 X90.548 Y85.740 E44.82765
G0 F9000 X91.114 Y85.740
G1 F1800 X114.259 Y108.885 E46.46065
G0 F9000 X114.259 Y108.320
G1 F1800 X91.679 Y85.740 E48.05379
G0 F9000 X92.245 Y85.740
G1 F1800 X114.259 Y107.754 E49.60700
G0 F9000 X114.259 Y107.188
G1 F1800 X92.811 Y85.740 E51.12027
G0 F9000 X93.376 Y85.740
G1 F1800 X114.259 Y106.623 E52.59368
G0 F9000 X114.259 Y106.057
G1 F1800 X93.942 Y85.740 E54.02715
G0 F9000 X94.508 Y85.740
G1 F1800 X114.259 Y105.491 E55.42069
G0 F9000 X114.259 Y104.926
G1 F1800 X95.074 Y85.740 E56.77434
G0 F9000 X95.639 Y85.740
G1 F1800 X114.259 Y104.360 E58.08808
G0 F9000 X114.259 Y103.794
G1 F1800 X96.205 Y85.740 E59.36188
G0 F9000 X96.771 Y85.740
G1 F1800 X114.259 Y103.229 E60.59579
G0 F9000 X114.259 Y102.663
G1 F1800 X97.336 Y85.740 E61.78980
G0 F9000 X97.902 Y85.740
G1 F1800 X114.259 Y102.097 E62.94388
G0 F9000 X114.259 Y101.532
G1 F1800 X98.468 Y85.740 E64.05805
G0 F9000 X99.033 Y85.740
G1 F1800 X114.259 Y100.966 E65.13233
G0 F9000 X114.259 Y100.400
G1 F1800 X99.599 Y85.740 E66.16667
G0 F9000 X85.739 Y86.588
G1 F1800 X113.410 Y114.259 E68.11901
G0 F9000 X112.845 Y114.259
G1 F1800 X85.739 Y87.153 E70.03148
G0 F9000 X85.739 Y87.719
G1 F1800 X112.279 Y114.259 E71.90402
G0 F9000 X111.713 Y114.259
G1 F1800 X85.739 Y88.285 E73.73663
G0 F9000 X85.739 Y88.850
G1 F1800 X111.147 Y114.259 E75.52934
G0 F9000 X110.582 Y114.259
G1 F1800 X85.739 Y89.416 E77.28214
G0 F9000 X85.739 Y89.982
G1 F1800 X110.016 Y114.259 E78.99502
G0 F9000 X109.450 Y114.259
G1 F1800 X85.739 Y90.547 E80.66799
G0 F9000 X85.739 Y91.113
G1 F1800 X108.885 Y114.259 E82.30107
G0 F9000 X108.319 Y114.259
G1 F1800 X85.739 Y91.679 E83.89421
G0 F9000 X85.739 Y92.244
G1 F1800 X107.753 Y114.259 E85.44745
G0 F9000 X107.188 Y114.259
G1 F1800 X85.739 Y92.810 E86.96079
G0 F9000 X85.739 Y93.376
G1 F1800 X106.622 Y114.259 E88.43420
G0 F9000 X106.056 Y114.259
G1 F1800 X85.739 Y93.941 E89.86771
G0 F9000 X85.739 Y94.507
G1 F1800 X105.491 Y114.259 E91.26132
G0 F9000 X104.925 Y114.259
G1 F1800 X85.739 Y95.073 E92.61500
G0 F9000 X85.739 Y95.639
G1 F1800 X104.359 Y114.259 E93.92874
G0 F9000 X103.794 Y114.259
G1 F1800 X85.739 Y96.204 E95.20262
G0 F9000 X85.739 Y96.770
G1 F1800 X103.228 Y114.259 E96.43656
G0 F9000 X102.662 Y114.259
G1 F1800 X85.739 Y97.336 E97.63057
G0 F9000 X85.739 Y97.901
G1 F1800 X102.097 Y114.259 E98.78471
G0 F9000 X101.531 Y114.259
G1 F1800 X85.739 Y98.467 E99.89893
G0 F9000 X85.739 Y99.033
G1 F1800 X100.965 Y114.259 E100.97320
G0 F9000 X100.399 Y114.259
G1 F1800 X85.739 Y99.598 E102.00758
G0 F9000 X85.739 Y100.164
G1 F1800 X99.834 Y114.259 E103.00206
G0 F9000 X99.268 Y114.259
G1 F1800 X85.739 Y100.730 E103.95660
G0 F9000 X85.739 Y101.295
G1 F1800 X98.702 Y114.259 E104.87125
G0 F9000 X98.137 Y114.259
G1 F1800 X85.739 Y101.861 E105.74599
G0 F9000 X85.739 Y102.427
G1 F1800 X97.571 Y114.259 E106.58080
G0 F9000 X97.005 Y114.259
G1 F1800 X85.739 Y102.992 E107.37572
G0 F9000 X85.739 Y103.558
G1 F1800 X96.440 Y114.259 E108.13073
G0 F9000 X95.874 Y114.259
G1 F1800 X85.739 Y104.124 E108.84581
G0 F9000 X85.739 Y104.689
G1 F1800 X95.308 Y114.259 E109.52099
G0 F9000 X94.743 Y114.259
G1 F1800 X85.739 Y105.255 E110.15627
G0 F9000 X85.739 Y105.821
G1 F1800 X94.177 Y114.259 E110.75162
G0 F9000 X93.611 Y114.259
G1 F1800 X85.739 Y106.387 E111.30703
G0 F9000 X85.739 Y106.952
G1 F1800 X93.046 Y114.259 E111.82258
G0 F9000 X92.480 Y114.259
G1 F1800 X85.739 Y107.518 E112.29819
G0 F9000 X85.739 Y108.084
G1 F1800 X91.914 Y114.259 E112.73387
G0 F9000 X91.349 Y114.259
G1 F1800 X85.739 Y108.649 E113.12969
G0 F9000 X85.739 Y109.215
G1 F1800 X90.783 Y114.259 E113.48557
G0 F9000 X90.217 Y114.259
G1 F1800 X85.739 Y109.781 E113.80151
G0 F9000 X85.739 Y110.346
G1 F1800 X89.651 Y114.259 E114.07756
G0 F9000 X89.086 Y114.259
G1 F1800 X85.739 Y110.912 E114.31371
G0 F9000 X85.739 Y111.478
G1 F1800 X88.520 Y114.259 E114.50993
G0 F9000 X87.954 Y114.259
G1 F1800 X85.739 Y112.043 E114.66624
G0 F9000 X85.739 Y112.609
G1 F1800 X87.389 Y114.259 E114.78266
G0 F9000 X86.823 Y114.259
G1 F1800 X85.739 Y113.175 E114.85914
G0 F9000 X85.739 Y113.740
G1 F1800 X86.257 Y114.259 E114.89572
G0 F9000 X114.259 Y99.834
G1 F1800 X100.165 Y85.740 E115.89013
G0 F9000 X100.730 Y85.740
G1 F1800 X114.259 Y99.269 E116.84467
G0 F9000 X114.259 Y98.703
G1 F1800 X101.296 Y85.740 E117.75928
G0 F9000 X101.862 Y85.740
G1 F1800 X114.259 Y98.137 E118.63396
G0 F9000 X114.259 Y97.572
G1 F1800 X102.427 Y85.740 E119.46877
G0 F9000 X102.993 Y85.740
G1 F1800 X114.259 Y97.006 E120.26365
G0 F9000 X114.259 Y96.440
G1 F1800 X103.559 Y85.740 E121.01859
G0 F9000 X104.125 Y85.740
G1 F1800 X114.259 Y95.875 E121.73363
G0 F9000 X114.259 Y95.309
G1 F1800 X104.690 Y85.740 E122.40878
G0 F9000 X105.256 Y85.740
G1 F1800 X114.259 Y94.743 E123.04399
G0 F9000 X114.259 Y94.178
G1 F1800 X105.822 Y85.740 E123.63930
G0 F9000 X106.387 Y85.740
G1 F1800 X114.259 Y93.612 E124.19471
G0 F9000 X114.259 Y93.046
G1 F1800 X106.953 Y85.740 E124.71019
G0 F9000 X107.519 Y85.740
G1 F1800 X114.259 Y92.481 E125.18577
G0 F9000 X114.259 Y91.915
G1 F1800 X108.084 Y85.740 E125.62145
G0 F9000 X108.650 Y85.740
G1 F1800 X114.259 Y91.349 E126.01719
G0 F9000 X114.259 Y90.784
G1 F1800 X109.216 Y85.740 E126.37304
G0 F9000 X109.781 Y85.740
G1 F1800 X114.259 Y90.218 E126.68899
G0 F9000 X114.259 Y89.652
G1 F1800 X110.347 Y85.740 E126.96500
G0 F9000 X110.913 Y85.740
G1 F1800 X114.259 Y89.086 E127.20108
G0 F9000 X114.259 Y88.521
G1 F1800 X111.478 Y85.740 E127.39729
G0 F9000 X112.044 Y85.740
G1 F1800 X114.259 Y87.955 E127.55357
G0 F9000 X114.259 Y87.389
G1 F1800 X112.610 Y85.740 E127.66992
G0 F9000 X113.175 Y85.740
G1 F1800 X114.259 Y86.824 E127.74640
G0 F9000 X114.259 Y86.258
G1 F1800 X113.741 Y85.740 E127.78295
;LAYER:1
M106 S63
G0 F9000 X114.400 Y85.600 Z0.500
;TYPE:WALL-INNER
G1 F2820 X114.400 Y114.400 E128.74084
G1 X85.600 Y114.400 E129.69873
G1 X85.600 Y85.600 E130.65662
G1 X114.400 Y85.600 E131.61452
G0 F9000 X114.800 Y85.200
;TYPE:WALL-OUTER
G1 F2220 X114.800 Y114.800 E132.59902
G1 X85.200 Y114.800 E133.58352
G1 X85.200 Y85.200 E134.56802
G1 X114.800 Y85.200 E135.55252
G0 F9000 X114.230 Y85.739
;TYPE:SKIN
G1 F2220 X85.740 Y114.229 E136.89260
G0 F9000 X86.275 Y114.259
G1 F2220 X114.259 Y86.276 E138.20886
G0 F9000 X114.259 Y86.841
G1 F2220 X86.841 Y114.259 E139.49852
G0 F9000 X87.406 Y114.259
G1 F2220 X114.259 Y87.407 E140.76157
G0 F9000 X114.259 Y87.973
G1 F2220 X87.972 Y114.259 E141.99801
G0 F9000 X88.538 Y114.259
G1 F2220 X114.259 Y88.538 E143.20785
G0 F9000 X114.259 Y89.104
G1 F2220 X89.103 Y114.259 E144.39109
G0 F9000 X89.669 Y114.259
G1 F2220 X114.259 Y89.670 E145.54770
G0 F9000 X114.259 Y90.236
G1 F2220 X90.235 Y114.259 E146.67769
G0 F9000 X90.800 Y114.259
G1 F2220 X114.259 Y90.801 E147.78111
G0 F9000 X114.259 Y91.367
G1 F2220 X91.366 Y114.259 E148.85790
G0 F9000 X91.932 Y114.259
G1 F2220 X114.259 Y91.933 E149.90807
G0 F9000 X114.259 Y92.498
G1 F2220 X92.498 Y114.259 E150.93164
G0 F9000 X93.063 Y114.259
G1 F2220 X114.259 Y93.064 E151.92861
G0 F9000 X114.259 Y93.630
G1 F2220 X93.629 Y114.259 E152.89896
G0 F9000 X94.195 Y114.259
G1 F2220 X114.259 Y94.195 E153.84271
G0 F9000 X114.259 Y94.761
G1 F2220 X94.760 Y114.259 E154.75986
G0 F9000 X95.326 Y114.259
G1 F2220 X114.259 Y95.327 E155.65039
G0 F9000 X114.259 Y95.892
G1 F2220 X95.892 Y114.259 E156.51431
G0 F9000 X96.457 Y114.259
G1 F2220 X114.259 Y96.458 E157.35164
G0 F9000 X114.259 Y97.024
G1 F2220 X97.023 Y114.259 E158.16235
G0 F9000 X97.589 Y114.259
G1 F2220 X114.259 Y97.589 E158.94645
G0 F9000 X114.259 Y98.155
G1 F2220 X98.154 Y114.259 E159.70396
G0 F9000 X98.720 Y114.259
G1 F2220 X114.259 Y98.721 E160.43484
G0 F9000 X114.259 Y99.286
G1 F2220 X99.286 Y114.259 E161.13913
G0 F9000 X99.851 Y114.259
G1 F2220 X114.259 Y99.852 E161.81681
G0 F9000 X113.664 Y85.739
G1 F2220 X85.740 Y113.663 E163.13027
G0 F9000 X85.740 Y113.098
G1 F2220 X113.098 Y85.739 E164.41713
G0 F9000 X112.533 Y85.739
G1 F2220 X85.740 Y112.532 E165.67739
G0 F9000 X85.740 Y111.966
G1 F2220 X111.967 Y85.739 E166.91103
G0 F9000 X111.401 Y85.739
G1 F2220 X85.740 Y111.401 E168.11807
G0 F9000 X85.740 Y110.835
G1 F2220 X110.836 Y85.739 E169.29851
G0 F9000 X110.270 Y85.739
G1 F2220 X85.740 Y110.269 E170.45232
G0 F9000 X85.740 Y109.704
G1 F2220 X109.704 Y85.739 E171.57954
G0 F9000 X109.139 Y85.739
G1 F2220 X85.740 Y109.138 E172.68016
G0 F9000 X85.740 Y108.572
G1 F2220 X108.573 Y85.739 E173.75415
G0 F9000 X108.007 Y85.739
G1 F2220 X85.740 Y108.007 E174.80155
G0 F9000 X85.740 Y107.441
G1 F2220 X107.442 Y85.739 E175.82234
G0 F9000 X106.876 Y85.739
G1 F2220 X85.740 Y106.875 E176.81651
G0 F9000 X85.740 Y106.309
G1 F2220 X106.310 Y85.739 E177.78406
G0 F9000 X105.744 Y85.739
G1 F2220 X85.740 Y105.744 E178.72501
G0 F9000 X85.740 Y105.178
G1 F2220 X105.179 Y85.739 E179.63936
G0 F9000 X104.613 Y85.739
G1 F2220 X85.740 Y104.612 E180.52709
G0 F9000 X85.740 Y104.047
G1 F2220 X104.047 Y85.739 E181.38822
G0 F9000 X103.482 Y85.739
G1 F2220 X85.740 Y103.481 E182.22275
G0 F9000 X85.740 Y102.915
G1 F2220 X102.916 Y85.739 E183.03066
G0 F9000 X102.350 Y85.739
G1 F2220 X85.740 Y102.350 E183.81196
G0 F9000 X85.740 Y101.784
G1 F2220 X101.785 Y85.739 E184.56667
G0 F9000 X101.219 Y85.739
G1 F2220 X85.740 Y101.218 E185.29476
G0 F9000 X85.740 Y100.653
G1 F2220 X100.653 Y85.739 E185.99624
G0 F9000 X100.088 Y85.739
G1 F2220 X85.740 Y100.087 E186.67113
G0 F9000 X85.740 Y99.521
G1 F2220 X99.522 Y85.739 E187.31939
G0 F9000 X98.956 Y85.739
G1 F2220 X85.740 Y98.956 E187.94105
G0 F9000 X85.740 Y98.390
G1 F2220 X98.391 Y85.739 E188.53612
G0 F9000 X97.825 Y85.739
G1 F2220 X85.740 Y97.824 E189.10456
G0 F9000 X85.740 Y97.259
G1 F2220 X97.259 Y85.739 E189.64640
G0 F9000 X96.694 Y85.739
G1 F2220 X85.740 Y96.693 E190.16164
G0 F9000 X85.740 Y96.127
G1 F2220 X96.128 Y85.739 E190.65026
G0 F9000 X95.562 Y85.739
G1 F2220 X85.740 Y95.561 E191.11226
G0 F9000 X85.740 Y94.996
G1 F2220 X94.996 Y85.739 E191.54766
G0 F9000 X94.431 Y85.739
G1 F2220 X85.740 Y94.430 E191.95646
G0 F9000 X85.740 Y93.864
G1 F2220 X93.865 Y85.739 E192.33863
G0 F9000 X93.299 Y85.739
G1 F2220 X85.740 Y93.299 E192.69421
G0 F9000 X85.740 Y92.733
G1 F2220 X92.734 Y85.739 E193.02318
G0 F9000 X92.168 Y85.739
G1 F2220 X85.740 Y92.167 E193.32554
G0 F9000 X85.740 Y91.602
G1 F2220 X91.602 Y85.739 E193.60129
G0 F9000 X91.037 Y85.739
G1 F2220 X85.740 Y91.036 E193.85045
G0 F9000 X85.740 Y90.470
G1 F2220 X90.471 Y85.739 E194.07298
G0 F9000 X89.905 Y85.739
G1 F2220 X85.740 Y89.905 E194.26891
G0 F9000 X85.740 Y89.339
G1 F2220 X89.340 Y85.739 E194.43824
G0 F9000 X88.774 Y85.739
G1 F2220 X85.740 Y88.773 E194.58095
G0 F9000 X85.740 Y88.208
G1 F2220 X88.208 Y85.739 E194.69706
G0 F9000 X87.643 Y85.739
G1 F2220 X85.740 Y87.642 E194.78657
G0 F9000 X85.740 Y87.076
G1 F2220 X87.077 Y85.739 E194.84946
G0 F9000 X86.511 Y85.739
G1 F2220 X85.740 Y86.510 E194.88573
G0 F9000 X85.740 Y85.945
G1 F2220 X85.946 Y85.739 E194.89542
G0 F9000 X114.259 Y100.418
G1 F2220 X100.417 Y114.259 E195.54648
G0 F9000 X100.983 Y114.259
G1 F2220 X114.259 Y100.984 E196.17092
G0 F9000 X114.259 Y101.549
G1 F2220 X101.549 Y114.259 E196.76876
G0 F9000 X102.114 Y114.259
G1 F2220 X114.259 Y102.115 E197.34000
G0 F9000 X114.259 Y102.681
G1 F2220 X102.680 Y114.259 E197.88462
G0 F9000 X103.246 Y114.259
G1 F2220 X114.259 Y103.246 E198.40263
G0 F9000 X114.259 Y103.812
G1 F2220 X103.811 Y114.259 E198.89405
G0 F9000 X104.377 Y114.259
G1 F2220 X114.259 Y104.378 E199.35885
G0 F9000 X114.259 Y104.943
G1 F2220 X104.943 Y114.259 E199.79704
G0 F9000 X105.508 Y114.259
G1 F2220 X114.259 Y105.509 E200.20864
G0 F9000 X114.259 Y106.075
G1 F2220 X106.074 Y114.259 E200.59361
G0 F9000 X106.640 Y114.259
G1 F2220 X114.259 Y106.640 E200.95199
G0 F9000 X114.259 Y107.206
G1 F2220 X107.205 Y114.259 E201.28376
G0 F9000 X107.771 Y114.259
G1 F2220 X114.259 Y107.772 E201.58891
G0 F9000 X114.259 Y108.337
G1 F2220 X108.337 Y114.259 E201.86747
G0 F9000 X108.902 Y114.259
G1 F2220 X114.259 Y108.903 E202.11942
G0 F9000 X114.259 Y109.469
G1 F2220 X109.468 Y114.259 E202.34475
G0 F9000 X110.034 Y114.259
G1 F2220 X114.259 Y110.035 E202.54346
G0 F9000 X114.259 Y110.600
G1 F2220 X110.599 Y114.259 E202.71559
G0 F9000 X111.165 Y114.259
G1 F2220 X114.259 Y111.166 E202.86110
G0 F9000 X114.259 Y111.732
G1 F2220 X111.731 Y114.259 E202.97999
G0 F9000 X112.297 Y114.259
G1 F2220 X114.259 Y112.297 E203.07227
G0 F9000 X114.259 Y112.863
G1 F2220 X112.862 Y114.259 E203.13796
G0 F9000 X113.428 Y114.259
G1 F2220 X114.259 Y113.429 E203.17702
G0 F9000 X114.259 Y113.994
G1 F2220 X113.994 Y114.259 E203.18949
;LAYER:2
M106 S127
G0 F9000 X114.400 Y114.400 Z0.700
;TYPE:WALL-INNER
G1 F3900 X85.600 Y114.400 E204.14738
G1 X85.600 Y85.600 E205.10527
G1 X114.400 Y85.600 E206.06316
G1 X114.400 Y114.400 E207.02106
G0 F9000 X114.800 Y114.800
;TYPE:WALL-OUTER
G1 F2700 X85.200 Y114.800 E208.00556
G1 X85.200 Y85.200 E208.99006
G1 X114.800 Y85.200 E209.97456
G1 X114.800 Y114.800 E210.95906
G0 F9000 X114.259 Y113.977
;TYPE:SKIN
G1 F2700 X86.023 Y85.740 E212.28721
G0 F9000 X85.739 Y86.022
G1 F2700 X113.976 Y114.259 E213.61540
G0 F9000 X113.410 Y114.259
G1 F2700 X85.739 Y86.588 E214.91695
G0 F9000 X85.739 Y87.153
G1 F2700 X112.845 Y114.259 E216.19194
G0 F9000 X112.279 Y114.259
G1 F2700 X85.739 Y87.719 E217.44030
G0 F9000 X85.739 Y88.285
G1 F2700 X111.713 Y114.259 E218.66204
G0 F9000 X111.147 Y114.259
G1 F2700 X85.739 Y88.850 E219.85717
G0 F9000 X85.739 Y89.416
G1 F2700 X110.582 Y114.259 E221.02571
G0 F9000 X110.016 Y114.259
G1 F2700 X85.739 Y89.982 E222.16763
G0 F9000 X85.739 Y90.547
G1 F2700 X109.450 Y114.259 E223.28294
G0 F9000 X108.885 Y114.259
G1 F2700 X85.739 Y91.113 E224.37166
G0 F9000 X85.739 Y91.679
G1 F2700 X108.319 Y114.259 E225.43375
G0 F9000 X107.753 Y114.259
G1 F2700 X85.739 Y92.244 E226.46925
G0 F9000 X85.739 Y92.810
G1 F2700 X107.188 Y114.259 E227.47814
G0 F9000 X106.622 Y114.259
G1 F2700 X85.739 Y93.376 E228.46042
G0 F9000 X85.739 Y93.941
G1 F2700 X106.056 Y114.259 E229.41609
G0 F9000 X105.491 Y114.259
G1 F2700 X85.739 Y94.507 E230.34516
G0 F9000 X85.739 Y95.073
G1 F2700 X104.925 Y114.259 E231.24761
G0 F9000 X104.359 Y114.259
G1 F2700 X85.739 Y95.639 E232.12344
G0 F9000 X85.739 Y96.204
G1 F2700 X103.794 Y114.259 E232.97269
G0 F9000 X103.228 Y114.259
G1 F2700 X85.739 Y96.770 E233.79532
G0 F9000 X85.739 Y97.336
G1 F2700 X102.662 Y114.259 E234.59133
G0 F9000 X102.097 Y114.259
G1 F2700 X85.739 Y97.901 E235.36076
G0 F9000 X85.739 Y98.467
G1 F2700 X101.531 Y114.259 E236.10357
G0 F9000 X100.965 Y114.259
G1 F2700 X85.739 Y99.033 E236.81975
G0 F9000 X85.739 Y99.598
