;Generated with Cura_SteamEngine 15.01
; Default start code
G28 ; Home extruder
G1 Z15 F200
M107 ; Turn off fan
G90 ; Absolute positioning
M82 ; Extruder in absolute mode
M190 S50
; Activate all used extruder
M104 T0 S210
G92 E0 ; Reset extruder position
; Wait for all used extruders to reach temperature
M109 T0 S210
;Layer count: 250
;LAYER:0
M107
G0 F9000 X81.239 Y83.734 Z0.300
G0 X80.813 Y84.729
;TYPE:SKIRT
G1 F1800 X81.239 Y83.734 E0.05400
G1 X83.672 Y81.421 E0.22148
G1 X86.561 Y80.449 E0.37355
G1 X87.736 Y80.405 E0.43221
G1 X89.974 Y80.840 E0.54596
G1 X91.396 Y81.298 E0.62049
G1 X92.120 Y80.507 E0.67399
G1 X92.547 Y80.114 E0.70294
G1 X93.781 Y79.047 E0.78433
G1 X95.450 Y78.322 E0.87511
G1 X96.333 Y78.084 E0.92074
G1 X98.055 Y77.994 E1.00677
G1 X98.859 Y78.131 E1.04746
G1 X99.589 Y78.351 E1.08549
G1 X106.184 Y80.281 E1.42832
G1 X106.262 Y80.306 E1.43241
G1 X106.415 Y80.331 E1.44014
G1 X108.668 Y80.822 E1.55518
G1 X109.106 Y80.904 E1.57741
G1 X110.984 Y81.445 E1.67492
G1 X111.580 Y81.609 E1.70576
G1 X113.134 Y82.481 E1.79466
G1 X114.453 Y83.532 E1.87880
G1 X115.306 Y84.114 E1.93032
G1 X116.051 Y85.556 E2.01129
G1 X117.169 Y88.165 E2.15290
G1 X117.266 Y88.288 E2.16072
G1 X117.422 Y88.376 E2.16965
G1 X118.345 Y89.174 E2.23053
G1 X119.208 Y89.949 E2.28840
G1 X119.890 Y90.610 E2.33578
G1 X121.114 Y92.340 E2.44151
G1 X121.527 Y93.317 E2.49443
G1 X121.928 Y95.261 E2.59345
G1 X121.989 Y96.969 E2.67872
G1 X121.312 Y98.596 E2.76664
G1 X120.060 Y100.413 E2.87673
G1 X119.450 Y101.158 E2.92476
G1 X117.004 Y102.951 E3.07607
G1 X116.209 Y103.267 E3.11875
G1 X115.947 Y103.430 E3.13415
G1 X114.934 Y106.429 E3.29207
G1 X113.454 Y108.827 E3.43266
G1 X111.686 Y110.092 E3.54112
G1 X110.644 Y110.512 E3.59717
G1 X110.246 Y110.570 E3.61723
G1 X108.882 Y110.976 E3.68823
G1 X104.994 Y111.468 E3.88375
G1 X104.192 Y111.569 E3.92408
G1 X102.099 Y111.887 E4.02970
G1 X98.435 Y112.659 E4.21651
G1 X95.434 Y113.240 E4.36901
G1 X94.368 Y113.337 E4.42242
G1 X91.283 Y112.479 E4.58217
G1 X89.984 Y111.974 E4.65170
G1 X89.188 Y111.090 E4.71105
G1 X88.181 Y109.753 E4.79456
G1 X87.867 Y109.243 E4.82444
G1 X86.894 Y106.774 E4.95683
G1 X84.429 Y105.996 E5.08579
G1 X83.522 Y105.638 E5.13444
G1 X80.164 Y103.523 E5.33243
G1 X78.349 Y100.308 E5.51662
G1 X77.967 Y99.232 E5.57359
G1 X78.013 Y98.135 E5.62837
G1 X78.483 Y95.188 E5.77725
G1 X80.242 Y93.003 E5.91720
G1 X80.879 Y92.305 E5.96434
G1 X79.977 Y90.228 E6.07731
G1 X80.021 Y87.750 E6.20096
G1 X80.090 Y86.977 E6.23968
G1 X80.813 Y84.729 E6.35749
G0 F9000 X81.188 Y84.870
G1 F1800 X81.574 Y83.967 E6.40648
G1 X83.883 Y81.772 E6.56543
G1 X86.634 Y80.847 E6.71022
G1 X87.705 Y80.806 E6.76370
G1 X89.875 Y81.228 E6.87399
G1 X91.518 Y81.757 E6.96010
G1 X92.404 Y80.790 E7.02553
G1 X92.813 Y80.412 E7.05332
G1 X93.996 Y79.389 E7.13134
G1 X95.583 Y78.701 E7.21764
G1 X96.396 Y78.481 E7.25966
G1 X98.031 Y78.396 E7.34134
G1 X98.768 Y78.521 E7.37863
G1 X99.473 Y78.734 E7.41538
G1 X106.067 Y80.664 E7.75815
G1 X106.165 Y80.696 E7.76330
G1 X106.341 Y80.724 E7.77219
G1 X108.605 Y81.217 E7.88779
G1 X109.014 Y81.293 E7.90854
G1 X110.859 Y81.825 E8.00434
G1 X111.426 Y81.982 E8.03369
G1 X112.910 Y82.814 E8.11857
G1 X114.217 Y83.856 E8.20196
G1 X114.997 Y84.387 E8.24904
G1 X115.689 Y85.727 E8.32428
G1 X116.821 Y88.371 E8.46777
G1 X116.999 Y88.597 E8.48212
G1 X117.192 Y88.705 E8.49316
G1 X118.080 Y89.474 E8.55176
G1 X118.935 Y90.241 E8.60907
G1 X119.585 Y90.871 E8.65423
G1 X120.762 Y92.536 E8.75595
G1 X121.143 Y93.437 E8.80476
G1 X121.529 Y95.308 E8.90007
G1 X121.586 Y96.896 E8.97935
G1 X120.959 Y98.404 E9.06082
G1 X119.740 Y100.173 E9.16801
G1 X119.173 Y100.865 E9.21264
G1 X116.809 Y102.598 E9.35888
G1 X116.029 Y102.907 E9.40073
G1 X115.613 Y103.166 E9.42518
G1 X114.570 Y106.258 E9.58798
G1 X113.156 Y108.548 E9.72225
G1 X111.492 Y109.739 E9.82434
G1 X110.539 Y110.123 E9.87560
G1 X110.163 Y110.178 E9.89456
G1 X108.799 Y110.583 E9.96555
G1 X104.944 Y111.071 E10.15941
G1 X104.161 Y111.169 E10.19878
G1 X102.008 Y111.496 E10.30743
G1 X98.355 Y112.267 E10.49369
G1 X95.378 Y112.843 E10.64497
G1 X94.404 Y112.932 E10.69376
G1 X91.409 Y112.099 E10.84886
G1 X90.218 Y111.635 E10.91262
G1 X89.497 Y110.835 E10.96635
G1 X88.512 Y109.527 E11.04804
G1 X88.226 Y109.064 E11.07520
G1 X87.197 Y106.450 E11.21535
G1 X84.563 Y105.619 E11.35314
G1 X83.704 Y105.280 E11.39922
G1 X80.463 Y103.238 E11.59033
G1 X78.714 Y100.142 E11.76773
G1 X78.370 Y99.172 E11.81908
G1 X78.412 Y98.175 E11.86886
G1 X78.861 Y95.356 E12.01128
G1 X80.546 Y93.264 E12.14529
G1 X81.339 Y92.394 E12.20402
G1 X81.349 Y92.384 E12.20473
G1 X80.378 Y90.148 E12.32635
G1 X80.421 Y87.771 E12.44495
G1 X80.485 Y87.057 E12.48072
G1 X81.188 Y84.870 E12.59533
G1 F2400 E8.59533
G0 F9000 X84.750 Y86.206
;TYPE:WALL-INNER
G1 F2400 E12.59533
G1 F1800 X84.761 Y86.181 E12.59669
G1 X85.891 Y85.106 E12.67450
G1 X87.324 Y84.624 E12.74993
G1 X87.411 Y84.621 E12.75427
G1 X88.928 Y84.916 E12.83137
G1 X91.719 Y85.814 E12.97765
G1 X92.516 Y85.950 E13.01798
G1 X92.883 Y85.841 E13.03708
G1 X93.640 Y85.134 E13.08876
G1 X93.829 Y84.860 E13.10537
G1 X95.100 Y83.473 E13.19923
G1 X96.042 Y82.643 E13.26186
G1 X96.840 Y82.297 E13.30526
G1 X96.997 Y82.255 E13.31336
G1 X97.807 Y82.213 E13.35383
G1 X97.901 Y82.228 E13.35858
G1 X104.958 Y84.299 E13.72550
G1 X105.276 Y84.401 E13.74216
G1 X107.846 Y84.941 E13.87318
G1 X108.135 Y84.995 E13.88785
G1 X109.845 Y85.487 E13.97662
G1 X109.969 Y85.521 E13.98304
G1 X110.783 Y85.978 E14.02961
G1 X111.960 Y86.916 E14.10470
G1 X112.063 Y86.986 E14.11091
G1 X112.247 Y87.342 E14.13090
G1 X113.526 Y90.327 E14.29292
G1 X114.481 Y91.543 E14.37006
G1 X114.997 Y91.832 E14.39956
G1 X115.563 Y92.322 E14.43691
G1 X116.351 Y93.029 E14.48973
G1 X116.686 Y93.354 E14.51302
G1 X117.422 Y94.395 E14.57662
G1 X117.497 Y94.572 E14.58621
G1 X117.743 Y95.763 E14.64689
G1 X117.758 Y96.204 E14.66890
G1 X117.603 Y96.577 E14.68905
G1 X116.701 Y97.887 E14.76840
G1 X116.539 Y98.084 E14.78113
G1 X114.955 Y99.245 E14.87911
G1 X114.314 Y99.500 E14.91353
G1 X113.088 Y100.261 E14.98552
G1 X112.754 Y100.460 E15.00491
G1 X112.266 Y101.338 E15.05503
G1 X112.126 Y101.616 E15.07056
G1 X111.110 Y104.628 E15.22915
G1 X110.323 Y105.903 E15.30390
G1 X109.648 Y106.386 E15.34531
G1 X109.544 Y106.428 E15.35090
G1 X109.342 Y106.457 E15.36108
G1 X108.013 Y106.852 E15.43025
G1 X103.634 Y107.406 E15.65046
G1 X101.337 Y107.754 E15.76637
G1 X97.601 Y108.542 E15.95686
G1 X94.848 Y109.075 E16.09676
G1 X94.750 Y109.084 E16.10167
G1 X92.611 Y108.489 E16.21244
G1 X92.438 Y108.422 E16.22169
G1 X91.656 Y107.386 E16.28645
G1 X91.637 Y107.354 E16.28831
G1 X90.382 Y104.167 E16.45919
G1 X89.459 Y103.198 E16.52595
G1 X88.988 Y103.030 E16.55090
G1 X85.836 Y102.036 E16.71579
G1 X85.432 Y101.877 E16.73745
G1 X83.299 Y100.533 E16.86323
G1 X82.197 Y98.583 E16.97498
G1 X82.198 Y98.563 E16.97598
G1 X82.455 Y96.951 E17.05741
G1 X83.432 Y95.737 E17.13516
G1 X84.089 Y95.017 E17.18379
G1 X85.791 Y93.308 E17.30412
G1 X86.032 Y92.671 E17.33810
G1 X85.140 Y91.323 E17.41874
G1 X84.933 Y91.099 E17.43396
G1 X84.192 Y89.393 E17.52675
G1 X84.218 Y87.980 E17.59726
G1 X84.232 Y87.816 E17.60547
G1 X84.750 Y86.206 E17.68985
G0 F9000 X84.373 Y86.070
;TYPE:WALL-OUTER
G1 F1800 X84.425 Y85.949 E17.69642
G1 X85.680 Y84.755 E17.78284
G1 X87.254 Y84.226 E17.86568
G1 X87.443 Y84.219 E17.87512
G1 X89.027 Y84.527 E17.95563
G1 X91.814 Y85.425 E18.10171
G1 X92.491 Y85.540 E18.13597
G1 X92.679 Y85.484 E18.14576
G1 X93.335 Y84.871 E18.19055
G1 X93.514 Y84.612 E18.20626
G1 X94.816 Y83.191 E18.30241
G1 X95.827 Y82.301 E18.36961
G1 X96.708 Y81.918 E18.41754
G1 X96.932 Y81.858 E18.42910
G1 X97.836 Y81.811 E18.47427
G1 X97.989 Y81.837 E18.48201
G1 X98.489 Y81.989 E18.50808
G1 X105.071 Y83.915 E18.85023
G1 X105.369 Y84.011 E18.86585
G1 X105.706 Y84.065 E18.88288
G1 X107.925 Y84.549 E18.99618
G1 X108.237 Y84.608 E19.01203
G1 X109.954 Y85.102 E19.10116
G1 X110.125 Y85.150 E19.11002
G1 X111.005 Y85.644 E19.16037
G1 X112.197 Y86.594 E19.23642
G1 X112.371 Y86.712 E19.24691
G1 X112.615 Y87.185 E19.27346
G1 X113.873 Y90.121 E19.43282
G1 X114.746 Y91.233 E19.50335
G1 X115.231 Y91.505 E19.53109
G1 X115.830 Y92.024 E19.57063
G1 X116.618 Y92.731 E19.62345
G1 X116.992 Y93.093 E19.64942
G1 X117.775 Y94.200 E19.71706
G1 X117.881 Y94.451 E19.73066
G1 X118.142 Y95.714 E19.79500
G1 X118.161 Y96.275 E19.82301
G1 X117.955 Y96.770 E19.84975
G1 X117.025 Y98.121 E19.93158
G1 X116.813 Y98.380 E19.94828
G1 X115.151 Y99.598 E20.05108
G1 X114.495 Y99.859 E20.08630
G1 X113.289 Y100.607 E20.15710
G1 X113.051 Y100.749 E20.17093
G1 X112.619 Y101.525 E20.21524
G1 X112.496 Y101.771 E20.22896
G1 X111.474 Y104.801 E20.38850
G1 X110.622 Y106.180 E20.46937
G1 X109.842 Y106.738 E20.51721
G1 X109.647 Y106.817 E20.52771
G1 X109.428 Y106.849 E20.53875
G1 X108.092 Y107.246 E20.60829
G1 X103.689 Y107.802 E20.82970
G1 X101.408 Y108.148 E20.94480
G1 X97.680 Y108.934 E21.13488
G1 X94.900 Y109.473 E21.27616
G1 X94.717 Y109.490 E21.28533
G1 X92.479 Y108.867 E21.40122
G1 X92.205 Y108.760 E21.41590
G1 X91.321 Y107.605 E21.48846
G1 X91.278 Y107.536 E21.49252
G1 X90.039 Y104.386 E21.66139
G1 X89.235 Y103.543 E21.71951
G1 X85.693 Y102.410 E21.90504
G1 X85.249 Y102.234 E21.92887
G1 X83.001 Y100.818 E22.06142
G1 X81.819 Y98.726 E22.18130
G1 X81.795 Y98.657 E22.18494
G1 X81.800 Y98.517 E22.19193
G1 X82.077 Y96.783 E22.27954
G1 X83.125 Y95.482 E22.36288
G1 X83.804 Y94.737 E22.41317
G1 X85.447 Y93.087 E22.52934
G1 X85.585 Y92.721 E22.54886
G1 X84.824 Y91.570 E22.61770
G1 X84.593 Y91.320 E22.63468
G1 X83.791 Y89.472 E22.73519
G1 X83.818 Y87.947 E22.81128
G1 X83.837 Y87.737 E22.82180
G1 X84.373 Y86.070 E22.90916
G0 F9000 X84.871 Y86.285
;TYPE:SKIN
G1 F1800 X105.601 Y107.015 E24.37177
G0 F9000 X105.099 Y107.079
G1 F1800 X84.733 Y86.713 E25.80870
G0 F9000 X84.595 Y87.141
G1 F1800 X104.597 Y107.142 E27.21992
G0 F9000 X104.095 Y107.206
G1 F1800 X84.457 Y87.568 E28.60549
G0 F9000 X84.357 Y88.034
G1 F1800 X103.592 Y107.269 E29.96262
G0 F9000 X103.101 Y107.343
G1 F1800 X84.347 Y88.589 E31.28581
G0 F9000 X84.336 Y89.144
G1 F1800 X102.610 Y107.418 E32.57514
G0 F9000 X102.118 Y107.492
G1 F1800 X84.595 Y89.969 E33.81149
G0 F9000 X85.028 Y90.968
G1 F1800 X101.627 Y107.567 E34.98264
G0 F9000 X101.145 Y107.650
G1 F1800 X86.176 Y92.681 E36.03878
G0 F9000 X86.021 Y93.092
G1 F1800 X100.677 Y107.748 E37.07284
G0 F9000 X100.210 Y107.847
G1 F1800 X85.830 Y93.466 E38.08746
G0 F9000 X85.547 Y93.750
G1 F1800 X99.743 Y107.946 E39.08907
G0 F9000 X99.276 Y108.044
G1 F1800 X85.265 Y94.033 E40.07762
G0 F9000 X84.982 Y94.316
G1 F1800 X98.808 Y108.142 E41.05312
G0 F9000 X98.342 Y108.241
G1 F1800 X84.700 Y94.600 E42.01560
G0 F9000 X84.418 Y94.883
G1 F1800 X97.874 Y108.340 E42.96503
G0 F9000 X97.406 Y108.437
G1 F1800 X84.138 Y95.169 E43.90116
G0 F9000 X83.868 Y95.465
G1 F1800 X96.932 Y108.528 E44.82286
G0 F9000 X96.458 Y108.620
G1 F1800 X83.598 Y95.760 E45.73020
G0 F9000 X83.342 Y96.070
G1 F1800 X95.984 Y108.712 E46.62216
G0 F9000 X95.510 Y108.803
G1 F1800 X83.089 Y96.383 E47.49849
G0 F9000 X82.837 Y96.696
G1 F1800 X89.038 Y102.897 E47.93601
G0 F9000 X88.212 Y102.637
G1 F1800 X82.587 Y97.012 E48.33288
G0 F9000 X82.508 Y97.499
G1 F1800 X87.387 Y102.377 E48.67709
G0 F9000 X86.561 Y102.117
G1 F1800 X82.430 Y97.987 E48.96852
G0 F9000 X82.353 Y98.475
G1 F1800 X85.716 Y101.838 E49.20579
G0 F9000 X84.323 Y101.010
G1 F1800 X82.957 Y99.645 E49.30214
G0 F9000 X86.007 Y92.674
G0 X85.153 Y86.001
G1 F1800 X106.104 Y106.952 E50.78034
G0 F9000 X106.606 Y106.889
G1 F1800 X85.442 Y85.725 E52.27358
G0 F9000 X85.732 Y85.449
G1 F1800 X107.108 Y106.825 E53.78177
G0 F9000 X107.610 Y106.761
G1 F1800 X86.049 Y85.200 E55.30301
G0 F9000 X86.472 Y85.058
G1 F1800 X108.094 Y106.680 E56.82856
G0 F9000 X108.530 Y106.551
G1 F1800 X86.895 Y84.915 E58.35506
G0 F9000 X87.319 Y84.773
G1 F1800 X108.967 Y106.421 E59.88245
G0 F9000 X109.414 Y106.303
G1 F1800 X87.988 Y84.876 E61.39420
G0 F9000 X88.690 Y85.013
G1 F1800 X109.788 Y106.111 E62.88278
G0 F9000 X110.118 Y105.875
G1 F1800 X89.485 Y85.243 E64.33852
G0 F9000 X90.320 Y85.511
G1 F1800 X110.369 Y105.561 E65.75312
G0 F9000 X110.585 Y105.211
G1 F1800 X91.154 Y85.780 E67.12408
G0 F9000 X91.933 Y85.993
G1 F1800 X110.801 Y104.861 E68.45532
G0 F9000 X111.005 Y104.499
G1 F1800 X92.581 Y86.076 E69.75519
G0 F9000 X92.996 Y85.925
G1 F1800 X111.147 Y104.076 E71.03585
G0 F9000 X111.290 Y103.653
G1 F1800 X93.289 Y85.652 E72.30591
G0 F9000 X93.582 Y85.379
G1 F1800 X111.432 Y103.230 E73.56536
G0 F9000 X111.575 Y102.807
G1 F1800 X93.847 Y85.079 E74.81617
G0 F9000 X94.101 Y84.767
G1 F1800 X111.718 Y102.384 E76.05914
G0 F9000 X111.861 Y101.961
G1 F1800 X94.371 Y84.472 E77.29312
G0 F9000 X94.642 Y84.177
G1 F1800 X112.007 Y101.541 E78.51828
G0 F9000 X112.198 Y101.167
G1 F1800 X94.913 Y83.882 E79.73783
G0 F9000 X95.183 Y83.587
G1 F1800 X112.400 Y100.804 E80.95258
G0 F9000 X112.603 Y100.441
G1 F1800 X95.484 Y83.321 E82.16046
G0 F9000 X95.784 Y83.056
G1 F1800 X112.922 Y100.194 E83.36964
G0 F9000 X113.273 Y99.979
G1 F1800 X96.085 Y82.791 E84.58234
G0 F9000 X96.469 Y82.609
G1 F1800 X113.622 Y99.763 E85.79261
G0 F9000 X113.972 Y99.547
G1 F1800 X96.863 Y82.438 E86.99975
G0 F9000 X97.366 Y82.375
G1 F1800 X114.332 Y99.342 E88.19682
G0 F9000 X114.737 Y99.180
G1 F1800 X97.943 Y82.387 E89.38170
G0 F9000 X98.743 Y82.621
G1 F1800 X115.092 Y98.970 E90.53521
G0 F9000 X115.418 Y98.731
G1 F1800 X99.544 Y82.856 E91.65524
G0 F9000 X100.345 Y83.092
G1 F1800 X115.745 Y98.492 E92.74179
G0 F9000 X116.072 Y98.253
G1 F1800 X101.145 Y83.326 E93.79497
G0 F9000 X101.947 Y83.562
G1 F1800 X116.398 Y98.013 E94.81457
G0 F9000 X116.655 Y97.705
G1 F1800 X102.747 Y83.797 E95.79585
G0 F9000 X103.548 Y84.031
G1 F1800 X116.886 Y97.370 E96.73696
G0 F9000 X117.117 Y97.035
G1 F1800 X104.349 Y84.267 E97.63781
G0 F9000 X105.158 Y84.511
G1 F1800 X117.347 Y96.700 E98.49781
G0 F9000 X117.550 Y96.336
G1 F1800 X105.885 Y84.672 E99.32080
G0 F9000 X106.602 Y84.823
G1 F1800 X117.604 Y95.825 E100.09705
G0 F9000 X117.468 Y95.123
G1 F1800 X107.317 Y84.973 E100.81322
G0 F9000 X108.028 Y85.118
G1 F1800 X113.745 Y90.835 E101.21659
G0 F9000 X113.050 Y89.574
G1 F1800 X108.811 Y85.335 E101.51567
G0 F9000 X109.605 Y85.563
G1 F1800 X112.626 Y88.584 E101.72882
G0 F9000 X112.202 Y87.595
G1 F1800 X110.700 Y86.093 E101.83480
G0 F9000 X114.784 Y91.874
G1 F1800 X117.120 Y94.210 E101.99961
G0 F9000 X95.035 Y108.895
G1 F1800 X90.680 Y104.539 E102.30692
G0 F9000 X91.047 Y105.472
G1 F1800 X94.421 Y108.846 E102.54497
G0 F9000 X93.637 Y108.627
G1 F1800 X91.414 Y106.405 E102.70178
G0 F9000 X91.841 Y107.397
G1 F1800 X92.853 Y108.409 E102.77318
;LAYER:1
M106 S63
G0 F9000 X93.107 Y108.597 Z0.500
;TYPE:WALL-INNER
G1 F2820 X92.596 Y108.397 E102.79143
G1 X92.475 Y108.263 E102.79744
G1 X91.760 Y107.314 E102.83696
G1 X91.683 Y107.187 E102.84190
G1 X90.493 Y104.184 E102.94933
G1 X90.267 Y103.900 E102.96141
G1 X89.555 Y103.167 E102.99539
G1 X88.750 Y102.879 E103.02383
G1 X86.089 Y102.040 E103.11663
G1 X85.204 Y101.691 E103.14827
G1 X83.470 Y100.598 E103.21645
G1 X82.331 Y98.599 E103.29297
G1 X82.298 Y98.503 E103.29634
G1 X82.308 Y98.266 E103.30423
G1 X82.507 Y97.018 E103.34627
G1 X83.258 Y96.084 E103.38613
G1 X84.636 Y94.571 E103.45420
G1 X85.795 Y93.408 E103.50881
G1 X86.128 Y92.534 E103.53991
G1 X85.402 Y91.437 E103.58367
G1 X84.932 Y90.924 E103.60681
G1 X84.822 Y90.718 E103.61457
G1 X84.244 Y89.364 E103.66354
G1 X84.266 Y88.193 E103.70249
G1 X84.303 Y87.777 E103.71639
G1 X84.762 Y86.348 E103.76631
G1 X84.847 Y86.151 E103.77344
G1 X85.958 Y85.089 E103.82456
G1 X87.156 Y84.686 E103.86660
G1 X87.497 Y84.674 E103.87795
G1 X88.831 Y84.934 E103.92315
G1 X89.635 Y85.150 E103.95084
G1 X91.746 Y85.849 E104.02480
G1 X92.470 Y85.972 E104.04923
G1 X92.938 Y85.833 E104.06547
G1 X93.597 Y85.217 E104.09547
G1 X93.968 Y84.681 E104.11715
G1 X94.983 Y83.573 E104.16713
G1 X95.516 Y83.083 E104.19121
G1 X96.034 Y82.634 E104.21401
G1 X96.633 Y82.375 E104.23571
G1 X97.052 Y82.262 E104.25015
G1 X97.759 Y82.226 E104.27369
G1 X98.051 Y82.275 E104.28354
G1 X99.052 Y82.577 E104.31832
G1 X104.598 Y84.201 E104.51052
G1 X105.211 Y84.396 E104.53192
